X: 13
M: C|
L: 1/8
K: D
dA |\
agfe cA FA |
dB GB ec Af/g/ |\
af ge fd eA | F2d2 d2 |] fg |\
abag fgfe | f2a2 a2DE |
af dB ec AF | dB GE cA FD |\


